contributed-vectors/galaxy_themes.svg

<svg xmlns="http://www.w3.org/2000/svg" xml:space="preserve" style="fill-rule:evenodd;clip-rule:evenodd;stroke-linejoin:round;stroke-miterlimit:2" viewBox="0 0 192 192"><path d="M164.5 21.5c0-5.519-4.481-10-10-10h-133c-5.519 0-10 4.481-10 10v133c0 5.519 4.481 10 10 10h133c5.519 0 10-4.481 10-10v-133Z" style="fill:#bd9aff" transform="translate(8 8)"/><path d="M135.398 76.69h-77.62v-8.792l-.022-.021v-8.361s11.832 7.165 26.098 6.146c14.266-1.019 18.181-7.261 35.696-7.006 0 0 7.888-.446 15.848 4.012V76.69ZM95.649 142.699c-4.923-.122-10.663-6.07-7.875-11.135 4.17-7.577-1.745-19.479-15.878-17.473-14.133 2.005-14.118-6.38-14.118-6.38V81.692h77.62v26.019s.016 8.385-14.117 6.38c-14.134-2.006-20.048 9.896-15.878 17.473 2.81 5.106-3.045 11.108-7.993 11.137h-1.726c-.012 0-.023 0-.035-.002Z" style="fill:#fff" transform="translate(15.588 16.248) scale(.8386)"/></svg>

<?xml version="1.0" encoding="UTF-8" standalone="no"?>
<!DOCTYPE svg PUBLIC "-//W3C//DTD SVG 1.1//EN" "http://www.w3.org/Graphics/SVG/1.1/DTD/svg11.dtd">
<svg width="100%" height="100%" viewBox="0 0 192 192" version="1.1" xmlns="http://www.w3.org/2000/svg" xmlns:xlink="http://www.w3.org/1999/xlink" xml:space="preserve" xmlns:serif="http://www.serif.com/" style="fill-rule:evenodd;clip-rule:evenodd;stroke-linejoin:round;stroke-miterlimit:2;">
    <g id="Layer1">
        <g transform="matrix(1,0,0,1,8,8)">
            <path d="M164.5,21.5C164.5,15.981 160.019,11.5 154.5,11.5L21.5,11.5C15.981,11.5 11.5,15.981 11.5,21.5L11.5,154.5C11.5,160.019 15.981,164.5 21.5,164.5L154.5,164.5C160.019,164.5 164.5,160.019 164.5,154.5L164.5,21.5Z" style="fill:rgb(189,154,255);"/>
        </g>
        <g transform="matrix(0.838601,0,0,0.838601,15.5875,16.2484)">
            <path d="M135.398,76.69L57.778,76.69L57.778,67.898L57.756,67.877L57.756,59.516C57.756,59.516 69.588,66.681 83.854,65.662C98.12,64.643 102.035,58.401 119.55,58.656C119.55,58.656 127.438,58.21 135.398,62.668L135.398,76.69Z" style="fill:white;"/>
            <path d="M95.649,142.699C90.726,142.577 84.986,136.629 87.774,131.564C91.944,123.987 86.029,112.085 71.896,114.091C57.763,116.096 57.778,107.711 57.778,107.711L57.778,81.692L135.398,81.692L135.398,107.711C135.398,107.711 135.414,116.096 121.281,114.091C107.147,112.085 101.233,123.987 105.403,131.564C108.213,136.67 102.358,142.672 97.41,142.701C97.407,142.701 97.404,142.701 97.402,142.701L95.684,142.701C95.672,142.701 95.661,142.701 95.649,142.699Z" style="fill:white;"/>
        </g>
    </g>
</svg>
